icons/lines/blogger.svg

<svg xmlns="http://www.w3.org/2000/svg" width="24" height="24" viewBox="0 0 24 24" fill="none" stroke="currentColor" stroke-width="2" stroke-linecap="round" stroke-linejoin="round">
  <path d="M10 10h2" />
  <path d="M10 14h4" />
  <path d="M6 15q0 3 3 3h6q3 0 3-3v-3a1 1 0 0 0-1-1 1 1 0 0 1-1-1V9q0-3-3-3H9Q6 6 6 9z" />
  <path d="M9 22c-5 0-7-2-7-7V9c0-5 2-7 7-7h6c5 0 7 2 7 7v6c0 5-2 7-7 7z" />
</svg>

<svg xmlns="http://www.w3.org/2000/svg" width="24" height="24" viewBox="0 0 24 24" fill="none" stroke="currentColor" stroke-width="2" stroke-linecap="round" stroke-linejoin="round" >
  <path d="M6 9V15C6 17 7 18 9 18H15C17 18 18 17 18 15V12C18 11.4 17.6 11 17 11C16.4 11 16 10.6 16 10V9C16 7 15 6 13 6H9C7 6 6 7 6 9Z" stroke-miterlimit="10"/>
  <path d="M10 10H12" stroke-miterlimit="10"/>
  <path d="M10 14H14" stroke-miterlimit="10"/>
  <path d="M15 22H9C4 22 2 20 2 15V9C2 4 4 2 9 2H15C20 2 22 4 22 9V15C22 20 20 22 15 22Z"/>
  </svg>
